NotoEmoji/emoji_u1f194.svg

<svg enable-background="new 0 0 128 128" viewBox="0 0 128 128" xmlns="http://www.w3.org/2000/svg"><path d="m116 4h-104c-4.42 0-8 3.58-8 8v104c0 4.42 3.58 8 8 8h104c4.42 0 8-3.58 8-8v-104c0-4.42-3.58-8-8-8z" fill="#8e24aa"/><path d="m109.7 4h-98.2c-4.13.03-7.47 3.37-7.5 7.5v97.9c-.01 4.14 3.34 7.49 7.48 7.5h.02 98.1c4.14.01 7.49-3.34 7.5-7.48 0-.01 0-.01 0-.02v-97.9c.09-4.05-3.13-7.41-7.18-7.5-.07 0-.15 0-.22 0z" fill="#ab47bc"/><g fill="#fafafa"><path d="m39.7 12.9c0-2.3-1.6-3-10.8-2.7-7.7.3-11.5 1.2-13.8 4s-2.9 8.5-3 15.3c0 4.8 0 9.3 2.5 9.3 3.4 0 3.4-7.9 6.2-12.3 5.4-8.7 18.9-10.6 18.9-13.6z" opacity=".3"/><path d="m29.19 36.87h10.35v54.89h-10.35z"/><path d="m52.04 36.87h18.55c5.72 0 10.71 1.15 14.95 3.45s7.51 5.52 9.81 9.66 3.45 8.92 3.45 14.34-1.15 10.2-3.45 14.34-5.57 7.36-9.81 9.66-9.23 3.45-14.95 3.45h-18.55zm18.09 45.08c5.93 0 10.45-1.57 13.57-4.71s4.68-7.45 4.68-12.92-1.56-9.78-4.68-12.92-7.64-4.71-13.57-4.71h-7.74v35.27h7.74z"/></g></svg>

<?xml version="1.0" encoding="utf-8"?>
<!-- Generator: Adobe Illustrator 25.2.3, SVG Export Plug-In . SVG Version: 6.00 Build 0)  -->
<svg version="1.1" id="Layer_2" xmlns="http://www.w3.org/2000/svg" xmlns:xlink="http://www.w3.org/1999/xlink" x="0px" y="0px"
	 viewBox="0 0 128 128" style="enable-background:new 0 0 128 128;" xml:space="preserve">
<g>
	<path style="fill:#8E24AA;" d="M116,4H12c-4.42,0-8,3.58-8,8v104c0,4.42,3.58,8,8,8h104c4.42,0,8-3.58,8-8V12
		C124,7.58,120.42,4,116,4z"/>
	<path style="fill:#AB47BC;" d="M109.7,4H11.5C7.37,4.03,4.03,7.37,4,11.5v97.9c-0.01,4.14,3.34,7.49,7.48,7.5c0.01,0,0.01,0,0.02,0
		h98.1c4.14,0.01,7.49-3.34,7.5-7.48c0-0.01,0-0.01,0-0.02V11.5c0.09-4.05-3.13-7.41-7.18-7.5C109.85,4,109.77,4,109.7,4z"/>
	<path style="opacity:0.3;fill:#FAFAFA;enable-background:new    ;" d="M39.7,12.9c0-2.3-1.6-3-10.8-2.7c-7.7,0.3-11.5,1.2-13.8,4
		s-2.9,8.5-3,15.3c0,4.8,0,9.3,2.5,9.3c3.4,0,3.4-7.9,6.2-12.3C26.2,17.8,39.7,15.9,39.7,12.9z"/>
	<g>
		<path style="fill:#FAFAFA;" d="M29.19,36.87h10.35v54.89H29.19V36.87z"/>
		<path style="fill:#FAFAFA;" d="M52.04,36.87h18.55c5.72,0,10.71,1.15,14.95,3.45c4.24,2.3,7.51,5.52,9.81,9.66
			c2.3,4.14,3.45,8.92,3.45,14.34c0,5.42-1.15,10.2-3.45,14.34c-2.3,4.14-5.57,7.36-9.81,9.66c-4.24,2.3-9.23,3.45-14.95,3.45H52.04
			V36.87z M70.13,81.95c5.93,0,10.45-1.57,13.57-4.71c3.12-3.14,4.68-7.45,4.68-12.92c0-5.47-1.56-9.78-4.68-12.92
			c-3.12-3.14-7.64-4.71-13.57-4.71h-7.74v35.27H70.13z"/>
	</g>
</g>
</svg>
